libs/ui/packages/crypto-icons/src/svg/NLC2.svg

<svg width="24" height="24" viewBox="0 0 24 24" fill="none">
<path fill-rule="evenodd" clip-rule="evenodd" d="M13.6132 10.2892L12.1575 7.42725C12.4605 6.76725 12.612 6.39225 12.612 6.306C12.612 5.99625 12.408 5.76975 12.0007 5.625H16.4618C15.912 5.8725 15.423 6.49125 14.9955 7.482L13.6132 10.2892ZM11.4262 14.7352L10.7475 16.1152H14.7502C16.563 16.1152 17.775 15.7755 18.3862 15.0953L16.2472 18.375H5.3085C6.48975 18.1477 7.6815 16.725 8.883 14.1045C9.288 13.299 9.65925 12.555 9.99825 11.874L11.4262 14.7352ZM3.75 15.1875C4.63575 14.6617 7.875 9.0585 7.875 7.482C7.875 7.11075 7.65075 6.75975 7.203 6.42975H10.686L13.7108 12.3713L16.6448 6.42975H20.25C18.7222 6.83175 15.6975 14.0392 15.6975 14.8778C15.6975 15.0428 15.7275 15.1462 15.789 15.1875H12.6112L9.89175 9.741L7.203 15.1875H3.75Z" fill="#F28F01"/>
</svg>

<svg width="24" height="24" viewBox="0 0 24 24" fill="none"><path fill="#f28f01" fill-rule="evenodd" d="m13.613 10.29-1.455-2.863q.454-.991.454-1.121 0-.464-.611-.681h4.46q-.824.37-1.465 1.857zm-2.187 4.445-.678 1.38h4.002q2.72 0 3.636-1.02l-2.139 3.28H5.31q1.77-.34 3.574-4.27.607-1.21 1.115-2.231zm-7.676.453c.886-.526 4.125-6.13 4.125-7.706q0-.557-.672-1.052h3.483l3.025 5.941 2.934-5.941h3.605c-1.528.402-4.552 7.61-4.552 8.448q0 .247.091.31h-3.178L9.891 9.74l-2.688 5.447z" clip-rule="evenodd"/></svg>
